X: 641
T: Elma Attım Yuvarlandı
C: Feruh Arsunar
O: Turkey
F: http://compmusic.upf.edu/node/140
N: muhayyer--turku--musemmen_ii--elma_attim--tunceli
N: makam= muhayyer
N: form= turku
N: usul= musemmen_ii = 8/8
M: 8/8
L: 1/16
K: C _2/4B ^3/4f  
Q: 1/4=150
%%MIDI tuningsystem comma53
e4 c2d2 e4 e2d2  | e2^2/4f2 g2a2 {a}g2f2 e2d2  | \
w:  ARANAĞME  |   | 
dcdc d2e2 e4 e2d2  | 
w:   | 
e2^2/4f2 g2a2 {a}g2f2 e2d2  | g4 ed3 dc3 ed3  | \
w:   |   | 
e4 cB3 cB3 dd3  | 
w:   | 
d4 cB3 BA3 cc3  | c4 BA3 A2A6  | A6A2 A2A2 ABcd  | \
w:   |   |   | 
e4 c2d2 e4 e2d2  | 
w:  ARANAĞME  | 
e2^2/4f2 g2a2 {a}g2f2 e2d2  | dcdc d2e2 e4 e2d2  | \
w:   |   | 
e2^2/4f2 g2a2 {a}g2f2 e2d2  | 
w:   | 
g4 ed3 dc3 ed3  | e4 cB3 cB3 dd3  | d4 cB3 BA3 cc3  | 
w:   |   |   | 
c4 BA3 A2A6  | A6A2 A2A2 defg  | a4 f2g2 a4 a4  | \
w:   |   |  *  El ma  at tım   | 
a3c' b3a a3f gfgf  | 
w:  yu *  var *  lan *  dı   | 
afgf afgf afgf afgf  | g8-g2.g2 .g2.g2  | 
w:  uy    |  *  SAZ  | 
g4 f2g2 g4 g4  | g3f g2a2 g2^2/4f2 e2d2  | \
w:  *  Git ti  be şi  |  ğe  *  da *  yan *  dı    | 
z4 f2g2 g4 g4  | g3f g2a2 g2^2/4f2 e2d2  | 
w:  Be bek_ uy ku  |  dan_ *  u *  yan *  dı    | 
a4 gf3 fe3 ge3  | g4 ed3 dc3 ed3  | e4 cB3 cB3 dd3  | 
w:  Nen ni  *  o ğul  o ğul   |  Nen ni  *  yav ru  yav ru    |  Nen ni  *  gü lüm  gü lüm    | 
d4 cB3 BA3 cc3  | c4 B2A2 A2A6  | A8-A2A2 c2d2  | \
w:  Nen ni  *  ba lım  ba lım    |  Nen ni  *  be bek   |  uy   SAZ  | 
e4 c2d2 e4 e2d2  | 
w:  *  Sa na  be bek   | 
e2^2/4f2 g2a2 {a}g2f2 e2d2  | dcdc d2e2 e4 e2d2  | \
w:  di *  ye *  *  me *  dim    |  SAZ *  *  *  Kal kıp_ em zik   | 
e2^2/4f2 g2a2 {a}g2f2 e2d2  | 
w:  ve *  re *  *  me *  dim    | 
g4 ed3 dc3 ed3  | d4 cB3 cB3 dd3  | d4 cB3 BA3 cc3  | 
w:  Nen ni  *  o ğul  o ğul    |  Nen ni  *  yav ru yav ru    |  Nen ni  *  gü lüm  gü lüm    | 
c4 BA3 A2A6  | A16  | e4 c2d2 e4 e2d2  | \
w:  Nen ni  *  be bek   |  uy    |  *  Sa na  be bek   | 
e2^2/4f2 g2a2 {a}g2f2 e2d2  | dcdc d2e2 e4 e2d2  | 
w:  di *  ye *  *  me *  dim    |  SAZ *  *  *  Kal kıp_ em zik   | 
e2^2/4f2 g2a2 {a}g2f2 e2d2  | g4 ed3 dc3 ed3  | \
w:  ve *  re *  *  me *  dim    |  Nen ni  *  o ğul  o ğul    | 
d4 cB3 cB3 dd3  | 
w:  Nen ni  *  yav ru yav ru    | 
d4 cB3 BA3 cc3  | c4 BA3 A2A6  | A16  | \
w:  Nen ni  *  gü lüm  gü lüm    |  Nen ni  *  be bek   |  uy    | 
e4 c2d2 e4 e2d2  | e2^2/4f2 g2a2 {a}g2f2 e2d2  | 
w:  ARANAĞME  |   | 
dcdc d2e2 e4 e2d2  | e2^2/4f2 g2a2 {a}g2f2 e2d2  | \
w:   |   | 
g4 ed3 dc3 ed3  | 
w:   | 
e4 cB3 cB3 dd3  | d4 cB3 BA3 cc3  | c4 BA3 A2A6  | \
w:   |   |   | 
A6A2 A2A2 ABcd  | 
w:   | 
e4 c2d2 e4 e2d2  | e2^2/4f2 g2a2 {a}g2f2 e2d2  | \
w:  ARANAĞME  |   | 
dcdc d2e2 e4 e2d2  | 
w:   | 
e2^2/4f2 g2a2 {a}g2f2 e2d2  | g4 ed3 dc3 ed3  | \
w:   |   | 
e4 cB3 cB3 dd3  | 
w:   | 
d4 cB3 BA3 cc3  | c4 BA3 A2A6  | A6A2 A2A2 defg  | \
w:   |   |   | 
a4 f2g2 a4 a4  | 
w:  *  El ma  at tım   | 
a3c' b3a a3f gfgf  | afgf afgf afgf afgf  | 
w:  yu *  var *  lan *  dı   |  uy    | 
g8-g2.g2 .g2.g2  | g4 f2g2 g4 g4  | g3f g2a2 g2^2/4f2 e2d2  | \
w:  *  SAZ  |  *  Git ti  be şi  |  ğe  *  da *  yan *  dı    | 
z4 f2g2 g4 g4  | 
w:  Be bek_ uy ku  | 
g3f g2a2 g2^2/4f2 e2d2  | a4 gf3 fe3 ge3  | \
w:  dan_ *  u *  yan *  dı    |  Nen ni  *  o ğul  o ğul   | 
g4 ed3 dc3 ed3  | 
w:  Nen ni  *  yav ru  yav ru    | 
e4 cB3 cB3 dd3  | d4 cB3 BA3 cc3  | c4 B2A2 A2A6  | \
w:  Nen ni  *  gü lüm  gü lüm    |  Nen ni  *  ba lım  ba lım    |  Nen ni  *  be bek   | 
A8-A2A2 c2d2  | 
w:  uy   SAZ  | 
e4 c2d2 e4 e2d2  | e2^2/4f2 g2a2 {a}g2f2 e2d2  | \
w:  *  Sa na  be bek   |  di *  ye *  *  me *  dim    | 
dcdc d2e2 e4 e2d2  | 
w:  SAZ *  *  *  Kal kıp_ em zik   | 
e2^2/4f2 g2a2 {a}g2f2 e2d2  | g4 ed3 dc3 ed3  | \
w:  ve *  re *  *  me *  dim    |  Nen ni  *  o ğul  o ğul    | 
d4 cB3 cB3 dd3  | 
w:  Nen ni  *  yav ru yav ru    | 
d4 cB3 BA3 cc3  | c4 BA3 A2A6  | A16  | \
w:  Nen ni  *  gü lüm  gü lüm    |  Nen ni  *  be bek   |  uy    | 
e4 c2d2 e4 e2d2  | e2^2/4f2 g2a2 {a}g2f2 e2d2  | 
w:  *  Sa na  be bek   |  di *  ye *  *  me *  dim    | 
dcdc d2e2 e4 e2d2  | e2^2/4f2 g2a2 {a}g2f2 e2d2  | \
w:  SAZ *  *  *  Kal kıp_ em zik   |  ve *  re *  *  me *  dim    | 
g4 ed3 dc3 ed3  | 
w:  Nen ni  *  o ğul  o ğul    | 
d4 cB3 cB3 dd3  | d4 cB3 BA3 cc3  | c4 BA3 A2A6  | A16  | |


